svgs/thin/chevrons-right.svg

<svg xmlns="http://www.w3.org/2000/svg" viewBox="0 0 448 512"><!--! Font Awesome Pro 6.3.0 by @fontawesome - https://fontawesome.com License - https://fontawesome.com/license (Commercial License) Copyright 2023 Fonticons, Inc. --><path d="M194.8 45.93L428.2 256l-233.4 210.1c-1.75 1.563-2.641 3.75-2.641 5.938c0 1.906 .6719 3.813 2.047 5.344c2.969 3.281 8.016 3.563 11.31 .5938l240-216c3.344-3 3.344-8.875 0-11.88l-240-216C202.2 31.09 197.1 31.37 194.2 34.65C191.2 37.93 191.5 43.03 194.8 45.93zM253.4 261.9c3.344-3 3.344-8.875 0-11.88l-239.1-216c-3.297-2.969-8.344-2.688-11.31 .5938c-2.984 3.281-2.688 8.375 .5938 11.28L236.1 256l-233.4 210.1c-1.75 1.563-2.641 3.75-2.641 5.938c0 1.906 .6719 3.813 2.047 5.344c2.969 3.281 8.016 3.563 11.31 .5938L253.4 261.9z"/></svg>

<svg xmlns="http://www.w3.org/2000/svg" viewBox="0 0 448 512"><!-- Font Awesome Pro 6.0.0-alpha2 by @fontawesome - https://fontawesome.com License - https://fontawesome.com/license (Commercial License) --><path d="M194.774 45.934L428.18 256L194.774 466.066C193.024 467.629 192.133 469.816 192.133 472.004C192.133 473.91 192.805 475.817 194.18 477.348C197.149 480.629 202.195 480.91 205.492 477.942L445.492 261.938C448.836 258.938 448.836 253.062 445.492 250.062L205.492 34.058C202.195 31.09 197.149 31.371 194.18 34.652C191.195 37.934 191.492 43.027 194.774 45.934ZM253.377 261.938C256.721 258.938 256.721 253.062 253.377 250.062L13.377 34.058C10.08 31.09 5.033 31.371 2.065 34.652C-0.92 37.934 -0.623 43.027 2.658 45.934L236.065 256L2.658 466.066C0.908 467.629 0.018 469.816 0.018 472.004C0.018 473.91 0.69 475.817 2.065 477.348C5.033 480.629 10.08 480.91 13.377 477.942L253.377 261.938Z"/></svg>
